logos/svg/neos_N_monochrome_dark.svg

<?xml version="1.0" encoding="UTF-8" standalone="no"?><!DOCTYPE svg PUBLIC "-//W3C//DTD SVG 1.1//EN" "http://www.w3.org/Graphics/SVG/1.1/DTD/svg11.dtd"><svg width="100%" height="100%" viewBox="0 0 200 200" version="1.1" xmlns="http://www.w3.org/2000/svg" xmlns:xlink="http://www.w3.org/1999/xlink" xml:space="preserve" style="fill-rule:evenodd;clip-rule:evenodd;stroke-linejoin:round;stroke-miterlimit:1.41421;"><path d="M132.387,38l-22.387,15.027l0,27.544l-28.911,-42.571l-26.377,0l-10.712,6.818l0,118.182l24.68,0l20.32,-15.969l0,-22.237l27.188,38.206l23.218,0l15.594,-12.811l0,-112.189l-22.613,0ZM79.72,41l53.28,76.691l0,-76.691l19,0l0,108l-18.498,0l-75.827,-108l22.045,0ZM86,145.696l-18.394,14.304l-17.656,0l17.05,-12.945l0,-53.931l19,27.912l0,24.66Z" style="fill:#000;fill-rule:nonzero;"/></svg>

<?xml version="1.0" encoding="utf-8"?>
<!-- Generator: Adobe Illustrator 15.0.2, SVG Export Plug-In . SVG Version: 6.00 Build 0)  -->
<!DOCTYPE svg PUBLIC "-//W3C//DTD SVG 1.1//EN" "http://www.w3.org/Graphics/SVG/1.1/DTD/svg11.dtd">
<svg version="1.1" id="Layer_1" xmlns="http://www.w3.org/2000/svg" xmlns:xlink="http://www.w3.org/1999/xlink" x="0px" y="0px"
	 width="200px" height="200px" viewBox="0 0 200 200" enable-background="new 0 0 200 200" xml:space="preserve">
<path d="M132.387,38L110,53.027v27.544L81.089,38H54.712L44,44.818V163h24.68L89,147.031v-22.237L116.188,163h23.218L155,150.189V38
	H132.387z M79.72,41L133,117.691V41h19v108h-18.498L57.675,41H79.72z M86,145.696L67.606,160H49.95L67,147.055V93.124l19,27.912
	V145.696z"/>
</svg>
